X: 6
T: Queen's Alman
T: for couples
P: AABB x2
C: 
K: G dorian
M: 2/2
L: 1/4
"Gm"GA BG | "D"A/G/^F/E/ F2 | "Cm"G2 "D"A2 | "Gm"D2 D2 :: "Bb"d3/c/ BA | "Bb"BA/G/ FF | 
"Gm"Bc dB | "D"c/B/A/G/ ^FG/A/ | "Gm"B/A/G/F/ "C"EF/G/ | "F"A/G/F/E/ "Bb"D/E/F/D/ | "C"E/F/"Dsus4"G2^F | "G5"G2 G2 :| 


